X: 6136
T: Captain Lockhart Of The Tartar
R: reel
M: 4/4
K: Cmajor
e|c(GG)F TE2 DC|D(dd)e fede|c(GG)F E(cTBA)|GEFD C/C/C C:|
f|ecgc eg(Tfe)|defg afda|ecgc eg(Tfe)|fdge c/c/c cg|
egcg ecgc|fdad fdaf|egde cdAc|GEcE C/C/C C||

